svgs/sharp-thin/pump.svg

<svg xmlns="http://www.w3.org/2000/svg" viewBox="0 0 640 512"><!--! Font Awesome Pro 6.6.0 by @fontawesome - https://fontawesome.com License - https://fontawesome.com/license (Commercial License) Copyright 2024 Fonticons, Inc. --><path d="M304 48L112 48l0-32 192 0 0 32zm16-32l0-16L304 0 112 0 96 0l0 16 0 32 0 16 16 0 16 0 0 160-64 0 0-16 0-16-16 0-32 0L0 192l0 16L0 400l0 16 16 0 32 0 16 0 0-16 0-16 256 0 0-16L64 368l0-128 72 0 8 0 0-8 0-168 128 0 0 168 0 8 8 0 40 0 0-16-32 0 0-160 16 0 16 0 0-16 0-32zm48 152.6L452.8 112 624 112l0 384-171.2 0L368 439.4l0-270.9zM448 96l-96 64 0 288 96 64 176 0 16 0 0-16 0-384 0-16-16 0L448 96zm0 128l0 16 8 0 112 0 8 0 0-16-8 0-112 0-8 0zm0 72l0 16 8 0 112 0 8 0 0-16-8 0-112 0-8 0zm0 72l0 16 8 0 112 0 8 0 0-16-8 0-112 0-8 0zM16 208l32 0 0 192-32 0 0-192z"/></svg>

<svg xmlns="http://www.w3.org/2000/svg" viewBox="0 0 640 512"><!--! Font Awesome Pro 6.5.2 by @fontawesome - https://fontawesome.com License - https://fontawesome.com/license (Commercial License) Copyright 2024 Fonticons, Inc. --><path d="M304 48L112 48V16l192 0V48zm16-32V0H304 112 96V16 48 64l16 0 16 0V224H64V208 192H48 16 0v16V400v16H16 48 64V400 384H320V368H64V240h72 8v-8V64H272V232v8h8 40V224H288V64h16 16V48 16zm48 152.6L452.8 112H624V496H452.8L368 439.4V168.6zM448 96l-96 64V448l96 64H624h16V496 112 96H624 448zm0 128v16h8H568h8V224h-8H456h-8zm0 72v16h8H568h8V296h-8H456h-8zm0 72v16h8H568h8V368h-8H456h-8zM16 208H48V400H16V208z"/></svg>
